Yosa-Max-Dark/actions/22x22/object-rotate-left.svg

<?xml version="1.0" encoding="UTF-8"?>
<svg id="svg4" version="1.1" viewBox="0 0 22 22" xmlns="http://www.w3.org/2000/svg">
 <path id="rect849" d="m8.9960938 3.0058594-5.9960938 5 5.9960938 4.9999996 0.0039062-0.003906v-3.9960936h8v9.9882816h2v-11.988282h-10v-3.9960938l-0.0039062-0.0039062z" style="fill:#dfdfdf"/>
</svg>

<?xml version="1.0" encoding="UTF-8" standalone="no"?>
<svg
   xmlns:dc="http://purl.org/dc/elements/1.1/"
   xmlns:cc="http://creativecommons.org/ns#"
   xmlns:rdf="http://www.w3.org/1999/02/22-rdf-syntax-ns#"
   xmlns:svg="http://www.w3.org/2000/svg"
   xmlns="http://www.w3.org/2000/svg"
   viewBox="0 0 22 22"
   version="1.1"
   id="svg4">
  <metadata
     id="metadata10">
    <rdf:RDF>
      <cc:Work
         rdf:about="">
        <dc:format>image/svg+xml</dc:format>
        <dc:type
           rdf:resource="http://purl.org/dc/dcmitype/StillImage" />
        <dc:title></dc:title>
      </cc:Work>
    </rdf:RDF>
  </metadata>
  <defs
     id="defs8" />
  <path
     id="rect849"
     d="M 8.9960938 3.0058594 L 3 8.0058594 L 8.9960938 13.005859 L 9 13.001953 L 9 9.0058594 L 17 9.0058594 L 17 18.994141 L 19 18.994141 L 19 7.0058594 L 9 7.0058594 L 9 3.0097656 L 8.9960938 3.0058594 z "
     style="opacity:1;vector-effect:none;fill:#dfdfdf;fill-opacity:1;stroke:none;stroke-width:0.49000001;stroke-linecap:butt;stroke-linejoin:miter;stroke-miterlimit:4;stroke-dasharray:none;stroke-dashoffset:0;stroke-opacity:1" />
</svg>
